X: 47
T:Harvest Home - Second Violin
M:4/4
L:1/8
Q:90
S:Found on Internet
R:Reel
K:D
z2|:FdAd FdAd|fgag f-ed-e|geae beae|((3gag (3efd) ((3cdc (3BAG)|!
FdAd FdAd|fgaf fedg|fdAd cdAG|[1F2 {FG}FE F2:|!
[2F2 {FG}FE F e-f||ge (3eee ae (3eee|be (3eee ae (3eee|geae beae|((3gag
(3efd) ((3cdc (3BAG)|!
FdAd FdAd|fgag fedg|fdAd cdAG|[1F2 {FG}FE F2 ef:|[2F2 {FG}FE F4|]
